!!!OTL: 1749. Reim dich, oder ich freß dich.
!!!ODT: 1840
!!!ARE: Europa, Mitteleuropa, Deutschland, Schlesien, Goldberg, Neukirch
!!!SCT: E1749
!!!TXL: @@DE
!!!YEM: Copyright 1995, estate of Helmut Schaffrath.
**kern	**text
*ICvox	*
*M2/4	*
*k[]	*
*C:	*
=1	=1
!LO:TX:a:t=Aus Schleſien (Neukirch bei Goldberg) 1840.	!
{8cc	Reim
8cc	dich,
8g	od'r
8g	ich
=2	=2
4a	freß
8a}	dich,
{8a	wie
=3	=3
8b/	reimt
8g	ſich
8a	das
8b	ʒu-
=4	=4
4cc	-ſamm'n?
4r}	.
=5	=5
{8cc	Reim
8cc	dich,
8g	od'r
8g	ich
=6	=6
4a	freß
8a}	dich,
{8a	wie
=7	=7
8b/	reimt
8g	ſich
8a	das
8b	ʒu-
=8	=8
4cc	-ſamm'n?
4r}	.
=9||	=9||
{8ee	Wenn
8ee	ſichs
8ee	nicht
8ee	will
=10	=10
4ff	rei-
8ff}	-men,
{8ff	ſo
=11	=11
8dd	mußs
8dd	der
8dd	Tiſch-
8dd	-ler
=12	=12
4ee	lei-
4ee}	-men.
=13	=13
{8cc	Reim
8cc	dich,
8cc	od'r
8cc	ich
=14	=14
4dd	freß
8dd}	dich,
{8dd	ſo
=15	=15
8b	reimt
8g	ſich
8a	das
8b	ʒu-
=16	=16
4cc	-ſamm'n.
4r}	.
=17	=17
{8ee	Wenn
8ee	ſichs
8ee	nicht
8ee	will
=18	=18
4ff	rei-
8ff}	-men,
{8ff	ſo
=19	=19
8dd	mußs
8dd	der
8dd	Tiſch-
8dd	-ler
=20	=20
4ee	lei-
4ee}	-men.
=21	=21
{8cc	Reim
8cc	dich,
8cc	od'r
8cc	ich
=22	=22
4dd	freß
8dd}	dich,
{8dd	ſo
=23	=23
8b	reimt
8g	ſich
8a	das
8b	ʒu-
=24	=24
4cc	-ſamm'n.
4r}	.
==	==
!!!AGN: Scherz -, Spiel - Lied, Reimspiel
!!!ONB: ESAC (Essen Associative Code) Database: ERK3
!!!AMT: simple duple
!!!AIN: vox
!!!EED: Helmut Schaffrath
!!!EEV: 1.0
!!!GTL: Scherz-, Spiel- und Spottlieder.
!!!URL-scan: https://rosdok.uni-rostock.de/mcrviewer/recordIdentifier/rosdok_ppn745177999/iview2/phys_0539.iview2?x=-449.8344612962892&y=-308.3616363008041&scale=0.47549036216460333&rotation=0&layout=singlePageLayout
!!!ENC: Anna Maria Matuszewska
!!!EEV: 2025/08/01
*-	*-
